X: 68
T:Richmond's March. BF13.067
M:4/4
Q:130
S:J.Lishman()MS,c1825,Lakes,Browne Coll.
R:March
O:England
A:Lakes
Z:vmp.Chris Partington
K:D
AB/c/|d2ddd2de|f2fff2fg|a2gf e2d2|cdecA2GF|!
B2BBB2cd|A2AAA2Bc|dfaf egce|d2ddd4:|!
|:de|f2fff2ed|e2eee2dc|efed cBA"NB"^G|A2AAA2GF|!
GBGE FAFD|BgBd dcBA|Bbag fedc|d2ddd4:|]
W: NB.Natural in MS ||
